third_party/noto/noto_2/emoji_u1f48c.svg

<svg enable-background="new 0 0 128 128" viewBox="0 0 128 128" xmlns="http://www.w3.org/2000/svg" xmlns:xlink="http://www.w3.org/1999/xlink"><linearGradient id="d" x1="64" x2="64" y1="108.04" y2="19.956" gradientUnits="userSpaceOnUse"><stop stop-color="#BDBDBD" offset="0"/><stop stop-color="#eee" offset=".757"/></linearGradient><path d="m113.5 108.04h-99c-5.81 0-10.52-4.71-10.52-10.52v-67.05c0-5.81 4.71-10.52 10.52-10.52h99c5.81 0 10.52 4.71 10.52 10.52v67.05c0 5.81-4.71 10.52-10.52 10.52z" fill="url(#d)"/><path d="m6.9 103.84" fill="none" stroke="#E57373" stroke-linecap="round" stroke-linejoin="round" stroke-miterlimit="10" stroke-width="3"/><path d="m120.86 22.81" fill="none" stroke="#E57373" stroke-linecap="round" stroke-linejoin="round" stroke-miterlimit="10" stroke-width="3"/><defs><path id="c" d="m113.5 108.04h-99c-5.81 0-10.52-4.71-10.52-10.52v-67.05c0-5.81 4.71-10.52 10.52-10.52h99c5.81 0 10.52 4.71 10.52 10.52v67.05c0 5.81-4.71 10.52-10.52 10.52z"/></defs><clipPath id="a"><use xlink:href="#c"/></clipPath><polyline points="-3.01 111.1 63.98 55.14 131.01 110.35" clip-path="url(#a)" fill="none" stroke="#B0BEC5" stroke-miterlimit="10" stroke-width="6"/><polyline points="-3.01 14.14 63.98 67.61 131.01 14.89" clip-path="url(#a)" fill="none" stroke="#B0BEC5" stroke-miterlimit="10" stroke-width="8"/><polyline points="-3.01 13.14 64.17 65.66 131.01 13.89" clip-path="url(#a)" fill="#F5F5F5"/><g opacity=".2"><path d="m113.5 22.96c4.15 0 7.52 3.37 7.52 7.52v67.05c0 4.15-3.37 7.52-7.52 7.52h-99c-4.15 0-7.52-3.37-7.52-7.52v-67.06c0-4.15 3.37-7.52 7.52-7.52h99m0-2.99h-99c-5.81 0-10.52 4.71-10.52 10.52v67.05c0 5.81 4.71 10.52 10.52 10.52h99c5.81 0 10.52-4.71 10.52-10.52v-67.06c0-5.8-4.71-10.51-10.52-10.51z" fill="#424242"/></g><radialGradient id="b" cx="64.428" cy="48.535" r="33.154" gradientUnits="userSpaceOnUse"><stop stop-color="#E53935" offset=".4748"/><stop stop-color="#C62828" offset=".913"/></radialGradient><path d="M83.24,40.91c-10.36-3.79-18.8,7.23-18.8,7.23s-8.08-10.52-18.61-7.26 C29.32,46,30.58,66.45,38.71,76.96C46.48,87.01,62,97.21,64,98.24v0.06c0,0.01,0.23,0.02,0.23,0.02s0.12-0.01,0.14-0.03 c0.02,0.02-0.18,0.03-0.18,0.03S64,98.31,64,98.3v-0.06c3-1.02,17.9-12.02,25.68-22.07C97.8,65.66,99.3,46.79,83.24,40.91z" fill="url(#b)"/><g opacity=".2"><path d="m78.82 43.12c1.14 0 2.28 0.21 3.39 0.61 5.09 1.86 8.37 5.25 9.76 10.07 1.84 6.37 0 14.62-4.58 20.54-5.9 7.63-17.73 16.51-23.24 20.31-5.81-3.87-17.05-11.85-22.98-19.53-4.61-5.96-6.44-15.11-4.34-21.74 1.53-4.83 4.85-8.07 9.88-9.63 1.06-0.33 2.14-0.49 3.21-0.49 6.84 0 12.09 6.58 12.13 6.64 0.57 0.74 1.45 1.1 2.38 1.1s1.81-0.36 2.38-1.1c0.06-0.07 5.39-6.78 12.01-6.78m0-3c-8.24 0-14.38 8.02-14.38 8.02s-6.05-7.88-14.51-7.88c-1.31 0-2.68 0.19-4.1 0.63-16.51 5.11-15.25 25.56-7.12 36.07 7.77 10.05 24.29 20.25 25.29 21.28v0.06-0.06c2-1.02 17.9-12.02 25.68-22.07 8.13-10.51 9.58-29.38-6.48-35.25-1.53-0.56-2.96-0.8-4.38-0.8zm-14.41 58.17c-0.01 0.01-0.05 0.02-0.07 0.02 0.03 0 0.08-0.01 0.07-0.02zm-0.23 0.01c0 0.01 0.12 0.02 0.12 0.02s0 0 0 0c-0.03-0.01-0.12-0.01-0.12-0.02zm0.16 0.01h-0.03 0.01s0 0.01 0.02 0z" fill="#424242"/></g></svg>

<svg width="128" height="128" style="enable-background:new 0 0 128 128;" xmlns="http://www.w3.org/2000/svg" xmlns:xlink="http://www.w3.org/1999/xlink">
  <g id="图层_3">
    <g>
      <linearGradient id="SVGID_1_" gradientUnits="userSpaceOnUse" x1="64" x2="64" y1="108.0435" y2="19.9565">
        <stop offset="0" style="stop-color:#BDBDBD"/>
        <stop offset="0.757" style="stop-color:#EEEEEE"/>
      </linearGradient>
      <path d="M113.5,108.04h-99c-5.81,0-10.52-4.71-10.52-10.52V30.47c0-5.81,4.71-10.52,10.52-10.52h99 c5.81,0,10.52,4.71,10.52,10.52v67.05C124.02,103.33,119.31,108.04,113.5,108.04z" style="fill:url(#SVGID_1_);"/>
      <path d=" M6.9,103.84" style="fill:none;stroke:#E57373;stroke-width:3;stroke-linecap:round;stroke-linejoin:round;stroke-miterlimit:10;"/>
      <path d=" M120.86,22.81" style="fill:none;stroke:#E57373;stroke-width:3;stroke-linecap:round;stroke-linejoin:round;stroke-miterlimit:10;"/>
      <g>
        <defs>
          <path id="SVGID_3_" d="M113.5,108.04h-99c-5.81,0-10.52-4.71-10.52-10.52V30.47c0-5.81,4.71-10.52,10.52-10.52h99 c5.81,0,10.52,4.71,10.52,10.52v67.05C124.02,103.33,119.31,108.04,113.5,108.04z"/>
        </defs>
        <clipPath id="SVGID_4_">
          <use style="overflow:visible;" xlink:href="#SVGID_3_"/>
        </clipPath>
        <polyline points="-3.01,111.1 63.98,55.14 131.01,110.35 " style="clip-path:url(#SVGID_4_);fill:none;stroke:#B0BEC5;stroke-width:6;stroke-miterlimit:10;"/>
        <polyline points="-3.01,14.14 63.98,67.61 131.01,14.89 " style="clip-path:url(#SVGID_4_);fill:none;stroke:#B0BEC5;stroke-width:8;stroke-miterlimit:10;"/>
        <polyline points="-3.01,13.14 64.17,65.66 131.01,13.89 " style="clip-path:url(#SVGID_4_);fill:#F5F5F5;"/>
      </g>
      <g style="opacity:0.2;">
        <path d="M113.5,22.96c4.15,0,7.52,3.37,7.52,7.52v67.05c0,4.15-3.37,7.52-7.52,7.52h-99 c-4.15,0-7.52-3.37-7.52-7.52V30.47c0-4.15,3.37-7.52,7.52-7.52H113.5 M113.5,19.96h-99c-5.81,0-10.52,4.71-10.52,10.52v67.05 c0,5.81,4.71,10.52,10.52,10.52h99c5.81,0,10.52-4.71,10.52-10.52V30.47C124.02,24.67,119.31,19.96,113.5,19.96L113.5,19.96z" style="fill:#424242;"/>
      </g>
      <g>
        <radialGradient id="SVGID_5_" cx="64.4276" cy="48.5353" gradientUnits="userSpaceOnUse" r="33.1545">
          <stop offset="0.4748" style="stop-color:#E53935"/>
          <stop offset="0.913" style="stop-color:#C62828"/>
        </radialGradient>
        <path d="M83.24,40.91c-10.36-3.79-18.8,7.23-18.8,7.23s-8.08-10.52-18.61-7.26 C29.32,46,30.58,66.45,38.71,76.96C46.48,87.01,62,97.21,64,98.24v0.06c0,0.01,0.23,0.02,0.23,0.02s0.12-0.01,0.14-0.03 c0.02,0.02-0.18,0.03-0.18,0.03S64,98.31,64,98.3v-0.06c3-1.02,17.9-12.02,25.68-22.07C97.8,65.66,99.3,46.79,83.24,40.91z" style="fill:url(#SVGID_5_);"/>
      </g>
      <g style="opacity:0.2;">
        <path d="M78.82,43.12c1.14,0,2.28,0.21,3.39,0.61c5.09,1.86,8.37,5.25,9.76,10.07 c1.84,6.37,0,14.62-4.58,20.54c-5.9,7.63-17.73,16.51-23.24,20.31C58.34,90.78,47.1,82.8,41.17,75.12 c-4.61-5.96-6.44-15.11-4.34-21.74c1.53-4.83,4.85-8.07,9.88-9.63c1.06-0.33,2.14-0.49,3.21-0.49c6.84,0,12.09,6.58,12.13,6.64 c0.57,0.74,1.45,1.1,2.38,1.1c0,0,0,0,0,0c0.93,0,1.81-0.36,2.38-1.1C66.87,49.83,72.2,43.12,78.82,43.12 M78.82,40.12 c-8.24,0-14.38,8.02-14.38,8.02s-6.05-7.88-14.51-7.88c-1.31,0-2.68,0.19-4.1,0.63C29.32,46,30.58,66.45,38.71,76.96 C46.48,87.01,63,97.21,64,98.24v0.06v-0.06c2-1.02,17.9-12.02,25.68-22.07c8.13-10.51,9.58-29.38-6.48-35.25 C81.67,40.36,80.24,40.12,78.82,40.12L78.82,40.12z M64.41,98.29c-0.01,0.01-0.05,0.02-0.07,0.02 C64.37,98.31,64.42,98.3,64.41,98.29L64.41,98.29z M64.18,98.3c0,0.01,0.12,0.02,0.12,0.02s0,0,0,0 C64.27,98.31,64.18,98.31,64.18,98.3L64.18,98.3z M64.34,98.31c-0.01,0-0.03,0-0.03,0c0.01,0,0.01,0,0.01,0 S64.32,98.32,64.34,98.31L64.34,98.31z" style="fill:#424242;"/>
      </g>
    </g>
  </g>
  <g id="Layer_2_x5F_复制" style="display:none;">
    <g style="display:inline;opacity:0.3;">
      <g style="opacity:0.6;">
        <circle cx="64" cy="64" r="28" style="opacity:0.61;fill:none;stroke:#000000;stroke-width:0.2625;stroke-miterlimit:10;"/>
        <line style="opacity:0.61;fill:none;stroke:#000000;stroke-width:0.25;stroke-miterlimit:10;" x1="84" x2="84" y1="0" y2="128"/>
        <line style="opacity:0.61;fill:none;stroke:#000000;stroke-width:0.25;stroke-miterlimit:10;" x1="44" x2="44" y1="0" y2="128"/>
        <line style="opacity:0.61;fill:none;stroke:#000000;stroke-width:0.25;stroke-miterlimit:10;" x1="64" x2="64" y1="0" y2="128"/>
        <line style="opacity:0.61;fill:none;stroke:#000000;stroke-width:0.25;stroke-miterlimit:10;" x1="128" x2="0" y1="64" y2="64"/>
        <line style="opacity:0.61;fill:none;stroke:#000000;stroke-width:0.25;stroke-miterlimit:10;" x1="128" x2="0" y1="44" y2="44"/>
        <line style="opacity:0.61;fill:none;stroke:#000000;stroke-width:0.25;stroke-miterlimit:10;" x1="128" x2="0" y1="83.75" y2="83.75"/>
        <line style="opacity:0.61;fill:none;stroke:#000000;stroke-width:0.25;stroke-miterlimit:10;" x1="128" x2="0" y1="128" y2="0"/>
        <line style="opacity:0.61;fill:none;stroke:#000000;stroke-width:0.25;stroke-miterlimit:10;" x1="0" x2="128" y1="128" y2="0"/>
        <g style="opacity:0.61;">
          <path d="M64,4.26c32.94,0,59.74,26.8,59.74,59.74S96.94,123.74,64,123.74S4.26,96.94,4.26,64S31.06,4.26,64,4.26 M64,4 C30.86,4,4,30.86,4,64c0,33.14,26.86,60,60,60c33.14,0,60-26.86,60-60C124,30.86,97.14,4,64,4L64,4z"/>
        </g>
        <path d="M107.97,115.97H20.03 c-4.42,0-8.03-3.61-8.03-8.03V20.03c0-4.42,3.61-8.03,8.03-8.03h87.94c4.42,0,8.03,3.61,8.03,8.03v87.91 C116,112.36,112.39,115.97,107.97,115.97z" style="opacity:0.61;fill:none;stroke:#000000;stroke-width:0.2578;stroke-miterlimit:10;"/>
        <path d="M99.75,124H28 c-4.4,0-8-3.6-8-8V12c0-4.4,3.6-8,8-8h71.75c4.4,0,8,3.6,8,8v104C107.75,120.4,104.15,124,99.75,124z" style="opacity:0.61;fill:none;stroke:#000000;stroke-width:0.2567;stroke-miterlimit:10;"/>
        <path d="M113.77,108H14.23 C8.6,108,4,103.4,4,97.77V30.28c0-5.63,4.6-10.23,10.23-10.23h99.54c5.63,0,10.23,4.6,10.23,10.23v67.48 C124,103.4,119.4,108,113.77,108z" style="opacity:0.61;fill:none;stroke:#000000;stroke-width:0.2627;stroke-miterlimit:10;"/>
      </g>
      <g>
        <g style="opacity:0.2;">
          <defs>
            <rect id="SVGID_2_" height="128" style="opacity:0.2;" width="128"/>
          </defs>
          <clipPath id="SVGID_6_">
            <use style="overflow:visible;" xlink:href="#SVGID_2_"/>
          </clipPath>
          <g style="clip-path:url(#SVGID_6_);">
            <g>
              <line style="fill:none;stroke:#000000;stroke-width:0.25;stroke-miterlimit:10;" x1="-28" x2="-28" y1="160" y2="-32"/>
              <line style="fill:none;stroke:#000000;stroke-width:0.25;stroke-miterlimit:10;" x1="-24" x2="-24" y1="160" y2="-32"/>
              <line style="fill:none;stroke:#000000;stroke-width:0.25;stroke-miterlimit:10;" x1="-20" x2="-20" y1="160" y2="-32"/>
              <line style="fill:none;stroke:#000000;stroke-width:0.25;stroke-miterlimit:10;" x1="-16" x2="-16" y1="160" y2="-32"/>
              <line style="fill:none;stroke:#000000;stroke-width:0.25;stroke-miterlimit:10;" x1="-12" x2="-12" y1="160" y2="-32"/>
              <line style="fill:none;stroke:#000000;stroke-width:0.25;stroke-miterlimit:10;" x1="-8" x2="-8" y1="160" y2="-32"/>
              <line style="fill:none;stroke:#000000;stroke-width:0.25;stroke-miterlimit:10;" x1="-4" x2="-4" y1="160" y2="-32"/>
              <line style="fill:none;stroke:#000000;stroke-width:0.25;stroke-miterlimit:10;" x1="0" x2="0" y1="160" y2="-32"/>
              <line style="fill:none;stroke:#000000;stroke-width:0.25;stroke-miterlimit:10;" x1="4" x2="4" y1="160" y2="-32"/>
              <line style="fill:none;stroke:#000000;stroke-width:0.25;stroke-miterlimit:10;" x1="8" x2="8" y1="160" y2="-32"/>
              <line style="fill:none;stroke:#000000;stroke-width:0.25;stroke-miterlimit:10;" x1="12" x2="12" y1="160" y2="-32"/>
              <line style="fill:none;stroke:#000000;stroke-width:0.25;stroke-miterlimit:10;" x1="16" x2="16" y1="160" y2="-32"/>
              <line style="fill:none;stroke:#000000;stroke-width:0.25;stroke-miterlimit:10;" x1="20" x2="20" y1="160" y2="-32"/>
              <line style="fill:none;stroke:#000000;stroke-width:0.25;stroke-miterlimit:10;" x1="24" x2="24" y1="160" y2="-32"/>
              <line style="fill:none;stroke:#000000;stroke-width:0.25;stroke-miterlimit:10;" x1="28" x2="28" y1="160" y2="-32"/>
              <line style="fill:none;stroke:#000000;stroke-width:0.25;stroke-miterlimit:10;" x1="32" x2="32" y1="160" y2="-32"/>
              <line style="fill:none;stroke:#000000;stroke-width:0.25;stroke-miterlimit:10;" x1="36" x2="36" y1="160" y2="-32"/>
              <line style="fill:none;stroke:#000000;stroke-width:0.25;stroke-miterlimit:10;" x1="40" x2="40" y1="160" y2="-32"/>
              <line style="fill:none;stroke:#000000;stroke-width:0.25;stroke-miterlimit:10;" x1="44" x2="44" y1="160" y2="-32"/>
              <line style="fill:none;stroke:#000000;stroke-width:0.25;stroke-miterlimit:10;" x1="48" x2="48" y1="160" y2="-32"/>
              <line style="fill:none;stroke:#000000;stroke-width:0.25;stroke-miterlimit:10;" x1="52" x2="52" y1="160" y2="-32"/>
              <line style="fill:none;stroke:#000000;stroke-width:0.25;stroke-miterlimit:10;" x1="56" x2="56" y1="160" y2="-32"/>
              <line style="fill:none;stroke:#000000;stroke-width:0.25;stroke-miterlimit:10;" x1="60" x2="60" y1="160" y2="-32"/>
              <line style="fill:none;stroke:#000000;stroke-width:0.25;stroke-miterlimit:10;" x1="64" x2="64" y1="160" y2="-32"/>
              <line style="fill:none;stroke:#000000;stroke-width:0.25;stroke-miterlimit:10;" x1="68" x2="68" y1="160" y2="-32"/>
              <line style="fill:none;stroke:#000000;stroke-width:0.25;stroke-miterlimit:10;" x1="72" x2="72" y1="160" y2="-32"/>
              <line style="fill:none;stroke:#000000;stroke-width:0.25;stroke-miterlimit:10;" x1="76" x2="76" y1="160" y2="-32"/>
              <line style="fill:none;stroke:#000000;stroke-width:0.25;stroke-miterlimit:10;" x1="80" x2="80" y1="160" y2="-32"/>
              <line style="fill:none;stroke:#000000;stroke-width:0.25;stroke-miterlimit:10;" x1="84" x2="84" y1="160" y2="-32"/>
              <line style="fill:none;stroke:#000000;stroke-width:0.25;stroke-miterlimit:10;" x1="88" x2="88" y1="160" y2="-32"/>
              <line style="fill:none;stroke:#000000;stroke-width:0.25;stroke-miterlimit:10;" x1="92" x2="92" y1="160" y2="-32"/>
              <line style="fill:none;stroke:#000000;stroke-width:0.25;stroke-miterlimit:10;" x1="96" x2="96" y1="160" y2="-32"/>
              <line style="fill:none;stroke:#000000;stroke-width:0.25;stroke-miterlimit:10;" x1="100" x2="100" y1="160" y2="-32"/>
              <line style="fill:none;stroke:#000000;stroke-width:0.25;stroke-miterlimit:10;" x1="104" x2="104" y1="160" y2="-32"/>
              <line style="fill:none;stroke:#000000;stroke-width:0.25;stroke-miterlimit:10;" x1="108" x2="108" y1="160" y2="-32"/>
              <line style="fill:none;stroke:#000000;stroke-width:0.25;stroke-miterlimit:10;" x1="112" x2="112" y1="160" y2="-32"/>
              <line style="fill:none;stroke:#000000;stroke-width:0.25;stroke-miterlimit:10;" x1="116" x2="116" y1="160" y2="-32"/>
              <line style="fill:none;stroke:#000000;stroke-width:0.25;stroke-miterlimit:10;" x1="120" x2="120" y1="160" y2="-32"/>
              <line style="fill:none;stroke:#000000;stroke-width:0.25;stroke-miterlimit:10;" x1="124" x2="124" y1="160" y2="-32"/>
              <line style="fill:none;stroke:#000000;stroke-width:0.25;stroke-miterlimit:10;" x1="128" x2="128" y1="160" y2="-32"/>
              <line style="fill:none;stroke:#000000;stroke-width:0.25;stroke-miterlimit:10;" x1="132" x2="132" y1="160" y2="-32"/>
              <line style="fill:none;stroke:#000000;stroke-width:0.25;stroke-miterlimit:10;" x1="136" x2="136" y1="160" y2="-32"/>
              <line style="fill:none;stroke:#000000;stroke-width:0.25;stroke-miterlimit:10;" x1="137" x2="137" y1="166.05" y2="-25.95"/>
              <line style="fill:none;stroke:#000000;stroke-width:0.25;stroke-miterlimit:10;" x1="144" x2="144" y1="160" y2="-32"/>
              <line style="fill:none;stroke:#000000;stroke-width:0.25;stroke-miterlimit:10;" x1="148" x2="148" y1="160" y2="-32"/>
              <line style="fill:none;stroke:#000000;stroke-width:0.25;stroke-miterlimit:10;" x1="152" x2="152" y1="160" y2="-32"/>
              <line style="fill:none;stroke:#000000;stroke-width:0.25;stroke-miterlimit:10;" x1="156" x2="156" y1="160" y2="-32"/>
            </g>
            <g>
              <line style="fill:none;stroke:#000000;stroke-width:0.25;stroke-miterlimit:10;" x1="-32" x2="160" y1="-28" y2="-28"/>
              <line style="fill:none;stroke:#000000;stroke-width:0.25;stroke-miterlimit:10;" x1="-32" x2="160" y1="-24" y2="-24"/>
              <line style="fill:none;stroke:#000000;stroke-width:0.25;stroke-miterlimit:10;" x1="-32" x2="160" y1="-20" y2="-20"/>
              <line style="fill:none;stroke:#000000;stroke-width:0.25;stroke-miterlimit:10;" x1="-32" x2="160" y1="-16" y2="-16"/>
              <line style="fill:none;stroke:#000000;stroke-width:0.25;stroke-miterlimit:10;" x1="-32" x2="160" y1="-12" y2="-12"/>
              <line style="fill:none;stroke:#000000;stroke-width:0.25;stroke-miterlimit:10;" x1="-32" x2="160" y1="-8" y2="-8"/>
              <line style="fill:none;stroke:#000000;stroke-width:0.25;stroke-miterlimit:10;" x1="-32" x2="160" y1="-4" y2="-4"/>
              <line style="fill:none;stroke:#000000;stroke-width:0.25;stroke-miterlimit:10;" x1="-32" x2="160" y1="0" y2="0"/>
              <line style="fill:none;stroke:#000000;stroke-width:0.25;stroke-miterlimit:10;" x1="-32" x2="160" y1="4" y2="4"/>
              <line style="fill:none;stroke:#000000;stroke-width:0.25;stroke-miterlimit:10;" x1="-32" x2="160" y1="8" y2="8"/>
              <line style="fill:none;stroke:#000000;stroke-width:0.25;stroke-miterlimit:10;" x1="-32" x2="160" y1="12" y2="12"/>
              <line style="fill:none;stroke:#000000;stroke-width:0.25;stroke-miterlimit:10;" x1="-32" x2="160" y1="16" y2="16"/>
              <line style="fill:none;stroke:#000000;stroke-width:0.25;stroke-miterlimit:10;" x1="-32" x2="160" y1="20" y2="20"/>
              <line style="fill:none;stroke:#000000;stroke-width:0.25;stroke-miterlimit:10;" x1="-32" x2="160" y1="24" y2="24"/>
              <line style="fill:none;stroke:#000000;stroke-width:0.25;stroke-miterlimit:10;" x1="-32" x2="160" y1="28" y2="28"/>
              <line style="fill:none;stroke:#000000;stroke-width:0.25;stroke-miterlimit:10;" x1="-32" x2="160" y1="32" y2="32"/>
              <line style="fill:none;stroke:#000000;stroke-width:0.25;stroke-miterlimit:10;" x1="-32" x2="160" y1="36" y2="36"/>
              <line style="fill:none;stroke:#000000;stroke-width:0.25;stroke-miterlimit:10;" x1="-32" x2="160" y1="40" y2="40"/>
              <line style="fill:none;stroke:#000000;stroke-width:0.25;stroke-miterlimit:10;" x1="-32" x2="160" y1="44" y2="44"/>
              <line style="fill:none;stroke:#000000;stroke-width:0.25;stroke-miterlimit:10;" x1="-32" x2="160" y1="48" y2="48"/>
              <line style="fill:none;stroke:#000000;stroke-width:0.25;stroke-miterlimit:10;" x1="-32" x2="160" y1="52" y2="52"/>
              <line style="fill:none;stroke:#000000;stroke-width:0.25;stroke-miterlimit:10;" x1="-32" x2="160" y1="56" y2="56"/>
              <line style="fill:none;stroke:#000000;stroke-width:0.25;stroke-miterlimit:10;" x1="-32" x2="160" y1="60" y2="60"/>
              <line style="fill:none;stroke:#000000;stroke-width:0.25;stroke-miterlimit:10;" x1="-32" x2="160" y1="64" y2="64"/>
              <line style="fill:none;stroke:#000000;stroke-width:0.25;stroke-miterlimit:10;" x1="-32" x2="160" y1="68" y2="68"/>
              <line style="fill:none;stroke:#000000;stroke-width:0.25;stroke-miterlimit:10;" x1="-32" x2="160" y1="72" y2="72"/>
              <line style="fill:none;stroke:#000000;stroke-width:0.25;stroke-miterlimit:10;" x1="-32" x2="160" y1="76" y2="76"/>
              <line style="fill:none;stroke:#000000;stroke-width:0.25;stroke-miterlimit:10;" x1="-32" x2="160" y1="80" y2="80"/>
              <line style="fill:none;stroke:#000000;stroke-width:0.25;stroke-miterlimit:10;" x1="-32" x2="160" y1="84" y2="84"/>
              <line style="fill:none;stroke:#000000;stroke-width:0.25;stroke-miterlimit:10;" x1="-32" x2="160" y1="88" y2="88"/>
              <line style="fill:none;stroke:#000000;stroke-width:0.25;stroke-miterlimit:10;" x1="-32" x2="160" y1="92" y2="92"/>
              <line style="fill:none;stroke:#000000;stroke-width:0.25;stroke-miterlimit:10;" x1="-32" x2="160" y1="96" y2="96"/>
              <line style="fill:none;stroke:#000000;stroke-width:0.25;stroke-miterlimit:10;" x1="-32" x2="160" y1="100" y2="100"/>
              <line style="fill:none;stroke:#000000;stroke-width:0.25;stroke-miterlimit:10;" x1="-32" x2="160" y1="104" y2="104"/>
              <line style="fill:none;stroke:#000000;stroke-width:0.25;stroke-miterlimit:10;" x1="-32" x2="160" y1="108" y2="108"/>
              <line style="fill:none;stroke:#000000;stroke-width:0.25;stroke-miterlimit:10;" x1="-32" x2="160" y1="112" y2="112"/>
              <line style="fill:none;stroke:#000000;stroke-width:0.25;stroke-miterlimit:10;" x1="-32" x2="160" y1="116" y2="116"/>
              <line style="fill:none;stroke:#000000;stroke-width:0.25;stroke-miterlimit:10;" x1="-32" x2="160" y1="120" y2="120"/>
              <line style="fill:none;stroke:#000000;stroke-width:0.25;stroke-miterlimit:10;" x1="-32" x2="160" y1="124" y2="124"/>
              <line style="fill:none;stroke:#000000;stroke-width:0.25;stroke-miterlimit:10;" x1="-32" x2="160" y1="128" y2="128"/>
              <line style="fill:none;stroke:#000000;stroke-width:0.25;stroke-miterlimit:10;" x1="-32" x2="160" y1="132" y2="132"/>
              <line style="fill:none;stroke:#000000;stroke-width:0.25;stroke-miterlimit:10;" x1="-32" x2="160" y1="136" y2="136"/>
              <line style="fill:none;stroke:#000000;stroke-width:0.25;stroke-miterlimit:10;" x1="-32" x2="160" y1="140" y2="140"/>
              <line style="fill:none;stroke:#000000;stroke-width:0.25;stroke-miterlimit:10;" x1="-32" x2="160" y1="144" y2="144"/>
              <line style="fill:none;stroke:#000000;stroke-width:0.25;stroke-miterlimit:10;" x1="-32" x2="160" y1="148" y2="148"/>
              <line style="fill:none;stroke:#000000;stroke-width:0.25;stroke-miterlimit:10;" x1="-32" x2="160" y1="152" y2="152"/>
              <line style="fill:none;stroke:#000000;stroke-width:0.25;stroke-miterlimit:10;" x1="-32" x2="160" y1="156" y2="156"/>
            </g>
            <path d="M159.75-31.75v191.5h-191.5v-191.5H159.75 M160-32H-32v192h192V-32L160-32z"/>
          </g>
        </g>
        <g>
          <rect height="128" style="opacity:0.3;fill:#F44336;" width="4"/>
          <rect height="128" style="opacity:0.3;fill:#F44336;" width="4" x="124"/>
          <rect height="120" style="opacity:0.3;fill:#F44336;" transform="matrix(-1.836970e-16 1 -1 -1.836970e-16 66 -62)" width="4" x="62" y="-58"/>
          <rect height="120" style="opacity:0.3;fill:#F44336;" transform="matrix(-1.836970e-16 1 -1 -1.836970e-16 190 62)" width="4" x="62" y="66"/>
        </g>
      </g>
    </g>
  </g>
</svg>
